X: 464
T: Sibao langong
L: 1/8
M: 2/4
K: F
F2F A [I:setbarnb 1]| 
G A D C | 
c3f | 
d c A G | 
cf2d | 
c d c G | 
F3D/ C/ | 
F4 | 
G AG2 | 
c2f d | 
c> B c c | 
G F D C | 
B d c G | 
B G F D | 
FC2D/ F/ | 
C4 |]

@@@ Tune index: 9338
